X: 14901
T: Gates Of Derry, The
R: jig
M: 6/8
K: Gmajor
D|GAB D2B|c2B A2G|GAB D3|E3 G2D|
GAB D2B|dcB A2G|GAB D3|E3 G2:|
D|G2B d2B|e2c d2B|G2B d2B|A3 d3|
e2c ABc|d2B G2D|GAB D3|E3 G3:|

